X:89
T:Butterfly
R:Slip Jig
C:Tommy Potts
D:Bothy Band: 1974
M:9/8
L:1/8
K:E Dorian
|:"Em"B2E (GFE) "D"F3|"Em"B2E (G2E) "D"(FED)|"Em"B2E (G2E) "D"F3|"G"B2d (d2B) "D"(AFD):|!
|:"Am"(B2c) (e2f) g3|(B2c) (g2e) dBA|(B2c) (e2f) (g2a)|"G"(b2a) (g2e) "D"dBA:|!
|:"G"B2E (BBA) "Em"G2A|"G"B3 (BAB) "D"dBA|"G"B3 (B2A) "Em"G2A|"G"(B2d) (g2e) "D"dBA:|


